!!!ONB: MCCC : IFC0101_02 : Extracted Monophonic Melody
!!!COM: Chopin, Frédéric
!!!OPR: Scherzo No.2
!!!OMV: 2
!!!SCT: Op.31
!!!ODT: 1837///
**kern
*thru
*staff1
*Ipiano
*>A
*clefG2
*k[]
*a:
*M3/4
*MM116
16e
8.a
16cc
=1
8.ee
16ee
4cc
4dd#
=2
8.ee
16ee
4a
4cc
=3
8.b
16b
4f#
4g#
=4
8a
16r
16e
8a
16r
16e
8a
16r
16cc
=5
8ee
16r
16ee
4cc
4dd#
=6
8.ee
16ee
4a
4cc
=7
8.b
16b
4f#
4g#
=8
4aa
8.r
16e
8.a
16cc
=9
8.ee
16ee
4cc
4dd#
=10
8.ee
16ee
4a
4cc
=11
8.b
16b
4f#
4g#
=12
8a
16r
16e
8a
16r
16e
8a
16r
16cc
=13
8ee
16r
16ee
4cc
4dd#
=14
8.ee
16ee
4a
4cc
=15
8.b
16b
4f#
4g#
=16
4aa
8.r
16g
8.cc
16ee
=17
*>B
8.gg
16gg
4ee
4ff#
=18
8.gg
16gg
4ee
4ff#
=19
8gg
16r
16gg
4cc
4dd
=20
2.ee
=21
8.ee
16ee
4cc
4dd#
=22
8.ee
16ee
4a
4cc
=23
8.b
16b
4f#
4g#
=24
8a
16r
16e
8a
16r
16e
8a
16r
16cc
=25
8ee
16r
16ee
4cc
4dd#
=26
8.ee
16ee
4a
4cc
=27
8.b
16b
4f#
4g#
=28
*>B1
4aa
8.r
16g
8.cc
16ee
=29
*>B
8.gg
16gg
4ee
4ff#
=30
8.gg
16gg
4ee
4ff#
=31
8gg
16r
16gg
4cc
4dd
=32
2.ee
=33
8.ee
16ee
4cc
4dd#
=34
8.ee
16ee
4a
4cc
=35
8.b
16b
4f#
4g#
=36
8a
16r
16e
8a
16r
16e
8a
16r
16cc
=37
8ee
16r
16ee
4cc
4dd#
=38
8.ee
16ee
4a
4cc
=39
8.b
16b
4f#
4g#
=40
*>B2
4aa
8.r
16e
8.e
16e
=41
*>C
*k[f#c#g#]
8.cc#
16cc#
4e
4a
=42
8.cc#
16cc#
4e
4a
=43
8.ee
16dd#
4.ff#
8ee
=44
8.ee
16dd#
4.ff#
8ee
=45
8.cc#
16cc#
4e
4a
=46
8.cc#
16cc#
4e
4a
=47
8.cc#
16b#
4.dd#
8cc#
=48
8.cc#
16b#
4dd#
4cc#
=49
*>C
8.cc#
16cc#
4e
4a
=50
8.cc#
16cc#
4e
4a
=51
8.ee
16dd#
4.ff#
8ee
=52
8.ee
16dd#
4.ff#
8ee
=53
8.cc#
16cc#
4e
4a
=54
8.cc#
16cc#
4e
4a
=55
8.cc#
16b#
4.dd#
8cc#
=56
8.cc#
16b#
4dd#
4cc#
=57
*>D
8.dd
16dd
4b
4ee
=58
8.cc#
16cc#
4e
4a
=59
8.b
16b
4b
4b
=60
8.cc#
16cc#
4e
4a
=61
8.dd
16dd
4b
4ee
=62
8.cc#
16cc#
4e
4a
=63
8.b
16b
4b
4b
=64
8.cc#
16cc#
4e
4a
=65
*k[]
8.ee
16ee
4cc
4dd#
=66
8.ee
16ee
4a
4cc
=67
8.b
16b
4f#
4g#
=68
8a
16r
16e
8a
16r
16e
8a
16r
16cc
=69
8ee
16r
16ee
4cc
4dd#
=70
8.ee
16ee
4a
4cc
=71
8.b
16b
4f#
4g#
=72
4aa
8.r
16g
8.cc
16ee
=73
8.gg
16gg
4ee
4ff#
=74
8.gg
16gg
4ee
4ff#
=75
8gg
16r
16gg
4cc
4dd
=76
2.ee
=77
8.ee
16ee
4cc
4dd#
=78
8.ee
16ee
4a
4cc
=79
8.b
16b
4f#
4g#
=80
8a
16r
16e
8a
16r
16e
8a
16r
16cc
=81
8ee
16r
16ee
4cc
4dd#
=82
8.ee
16ee
4a
4cc
=83
8.b
16b
4f#
4g#
=84
4aa
4r
4r
==
*-
